svgs/duotone/refrigerator.svg

<svg xmlns="http://www.w3.org/2000/svg" viewBox="0 0 384 512"><!-- Font Awesome Pro 6.0.0-alpha2 by @fontawesome - https://fontawesome.com License - https://fontawesome.com/license (Commercial License) --><defs><style>.fa-secondary{opacity:.4}</style></defs><path d="M0 192H288V160H0V192ZM320 160V192H384V160H320Z" class="fa-secondary"/><path d="M320 368C320 376.801 312.801 384 304 384S288 376.801 288 368V192H0V480C0 497.674 14.326 512 32 512H352C369.674 512 384 497.674 384 480V192H320V368ZM320 0H64C28.654 0 0 28.654 0 64V160H288V80C288 71.199 295.199 64 304 64S320 71.199 320 80V160H384V64C384 28.654 355.346 0 320 0Z" class="fa-primary"/></svg>

<svg xmlns="http://www.w3.org/2000/svg" viewBox="0 0 384 512"><!--! Font Awesome Pro 6.3.0 by @fontawesome - https://fontawesome.com License - https://fontawesome.com/license (Commercial License) Copyright 2023 Fonticons, Inc. --><defs><style>.fa-secondary{opacity:.4}</style></defs><path class="fa-primary" d="M320 368c0 8.801-7.199 16-16 16S288 376.8 288 368V192H0v288c0 17.67 14.33 32 32 32h320c17.67 0 32-14.33 32-32V192h-64V368zM320 0H64C28.65 0 0 28.65 0 64v96h288V79.1C288 71.2 295.2 64 304 64S320 71.2 320 79.1V160h64V64C384 28.65 355.3 0 320 0z"/><path class="fa-secondary" d="M0 192h288V160H0V192zM320 160v32h64V160H320z"/></svg>
